icons/svg/arrow-move.svg

<svg width="24" height="24" viewBox="0 0 24 24" fill="none" xmlns="http://www.w3.org/2000/svg">
<path d="M12 9.00464V2.80064V2.75M9 5.32429L11.2733 3.05102C11.474 2.85033 11.737 2.74999 12 2.75M15 5.32429L12.7267 3.05102C12.5261 2.85035 12.263 2.75001 12 2.75" stroke="currentColor" stroke-width="1.5" stroke-linecap="round" stroke-linejoin="round"/>
<path d="M14.9954 12L21.1994 12L21.25 12M18.6757 9L20.949 11.2733C21.1497 11.474 21.25 11.737 21.25 12M18.6757 15L20.949 12.7267C21.1497 12.5261 21.25 12.263 21.25 12" stroke="currentColor" stroke-width="1.5" stroke-linecap="round" stroke-linejoin="round"/>
<path d="M12 14.9954V21.1994V21.25M9 18.6757L11.2733 20.949C11.474 21.1497 11.737 21.25 12 21.25M15 18.6757L12.7267 20.949C12.5261 21.1497 12.263 21.25 12 21.25" stroke="currentColor" stroke-width="1.5" stroke-linecap="round" stroke-linejoin="round"/>
<path d="M9.00464 12L2.80064 12L2.75 12M5.32429 9L3.05102 11.2733C2.85033 11.474 2.74999 11.737 2.75 12M5.32429 15L3.05102 12.7267C2.85035 12.5261 2.75001 12.263 2.75 12" stroke="currentColor" stroke-width="1.5" stroke-linecap="round" stroke-linejoin="round"/>
</svg>

<svg xmlns="http://www.w3.org/2000/svg" width="24" height="24" fill="none" viewBox="0 0 24 24"><path stroke="currentColor" stroke-linecap="round" stroke-linejoin="round" stroke-width="1.5" d="M12 9.005V2.75M9 5.324l2.273-2.273c.201-.2.464-.301.727-.301m3 2.574-2.273-2.273c-.2-.2-.464-.301-.727-.301M14.995 12h6.255m-2.574-3 2.273 2.273c.2.201.301.464.301.727m-2.574 3 2.273-2.273c.2-.2.301-.464.301-.727M12 14.995v6.255m-3-2.574 2.273 2.273c.201.2.464.301.727.301m3-2.574-2.273 2.273c-.2.2-.464.301-.727.301M9.005 12H2.75m2.574-3-2.273 2.273c-.2.201-.301.464-.301.727m2.574 3-2.273-2.273c-.2-.2-.301-.464-.301-.727"/></svg>
